material/.icons/material/table-merge-cells.svg

<svg xmlns="http://www.w3.org/2000/svg" viewBox="0 0 24 24"><path d="M5 10H3V4h8v2H5v4m14 8h-6v2h8v-6h-2v4M5 18v-4H3v6h8v-2H5M21 4h-8v2h6v4h2V4M8 13v2l3-3-3-3v2H3v2h5m8-2V9l-3 3 3 3v-2h5v-2h-5z"/></svg>

<?xml version="1.0" encoding="UTF-8"?><!DOCTYPE svg PUBLIC "-//W3C//DTD SVG 1.1//EN" "http://www.w3.org/Graphics/SVG/1.1/DTD/svg11.dtd"><svg xmlns="http://www.w3.org/2000/svg" xmlns:xlink="http://www.w3.org/1999/xlink" version="1.1" id="mdi-table-merge-cells" width="24" height="24" viewBox="0 0 24 24"><path d="M5,10H3V4H11V6H5V10M19,18H13V20H21V14H19V18M5,18V14H3V20H11V18H5M21,4H13V6H19V10H21V4M8,13V15L11,12L8,9V11H3V13H8M16,11V9L13,12L16,15V13H21V11H16Z" /></svg>
